;FLAVOR:Marlin
;TIME:2807
;Filament used: 1.15993m
;Layer height: 0.2
;MINX:93.699
;MINY:93.699
;MINZ:0.2
;MAXX:141.301
;MAXY:141.301
;MAXZ:7
;Generated with Cura_SteamEngine 4.8.0
M140 S50
M105
M190 S50
M104 S200
M105
M109 S200
M82 ;absolute extrusion mode
; Start print alert
M117 Print Starting
M300 S880 P300 ; Tone seq 1
M300 S660 P250 ; Tone seq 2
M300 S440 P200 ; Tone seq 3

; Homing sequence
G28 ; Home all axes
G92 E0 ; Reset Extruder
G1 Z2.0 F3000 ; Move Z up to prevent scratching of bed

; Priming sequence
G1 X0.1 Y20 Z0.15 F5000.0 ; Move to start position
G1 X0.1 Y50.0 Z0.15 F1500.0 E15 ; Extrude 15mm filament in 3cm line
; G1 X0.4 Y200.0 Z0.15 F5000.0 ; Move to side a little
; G1 X0.4 Y20 Z0.15 F1500.0 E10 ; Draw the second line
G92 E0 ; Reset Extruder
G1 E-1 F500 ; Retract a little
G1 Y90 F4000 ; Quickly wipe away from prime line
G1 Z2.0 F3000 ; Move Z up to prevent scratching of bed

; Begin print
M117 Printing
G92 E0
G92 E0
G1 F1500 E-6.5
;LAYER_COUNT:35
;LAYER:0
M107
;MESH:large-gear.stl
G0 F6000 X108.344 Y134.966 Z0.2
;TYPE:WALL-INNER
G1 F1500 E0
G1 F1200 X109.082 Y134.856 E0.02482
G1 X109.805 Y134.676 E0.0496
G1 X110.508 Y134.424 E0.07444
G1 X111.182 Y134.105 E0.09924
G1 X111.822 Y133.722 E0.12405
G1 X112.421 Y133.277 E0.14886
G1 X112.974 Y132.776 E0.17368
G1 X113.475 Y132.223 E0.1985
G1 X113.92 Y131.624 E0.22332
G1 X114.303 Y130.983 E0.24816
G1 X114.628 Y130.294 E0.27349
G1 X114.874 Y129.607 E0.29776
G1 X115.055 Y128.884 E0.32255
G1 X115.164 Y128.146 E0.34737
G1 X115.2 Y127.401 E0.37217
G1 X115.164 Y126.656 E0.39698
G1 X115.055 Y125.918 E0.42179
G1 X114.874 Y125.195 E0.44658
G1 X114.622 Y124.492 E0.47142
G1 X114.303 Y123.818 E0.49622
G1 X113.92 Y123.178 E0.52103
G1 X113.476 Y122.579 E0.54583
G1 X112.974 Y122.025 E0.57069
G1 X112.421 Y121.524 E0.59551
G1 X111.822 Y121.08 E0.62031
G1 X111.182 Y120.697 E0.64512
G1 X110.508 Y120.378 E0.66992
G1 X109.805 Y120.126 E0.69476
G1 X109.082 Y119.945 E0.71955
G1 X108.344 Y119.836 E0.74436
G1 X107.599 Y119.8 E0.76917
G1 X106.854 Y119.836 E0.79398
G1 X106.116 Y119.945 E0.81879
G1 X105.393 Y120.126 E0.84358
G1 X104.69 Y120.378 E0.86842
G1 X104.016 Y120.697 E0.89322
G1 X103.376 Y121.08 E0.91802
G1 X102.777 Y121.524 E0.94282
G1 X102.224 Y122.025 E0.96764
G1 X101.722 Y122.579 E0.99251
G1 X101.278 Y123.178 E1.01731
G1 X100.895 Y123.818 E1.04211
G1 X100.576 Y124.492 E1.06692
G1 X100.324 Y125.195 E1.09175
G1 X100.144 Y125.918 E1.11654
G1 X100.034 Y126.656 E1.14135
G1 X99.998 Y127.401 E1.16616
G1 X100.034 Y128.146 E1.19097
G1 X100.144 Y128.884 E1.21579
G1 X100.324 Y129.607 E1.24057
G1 X100.576 Y130.31 E1.26541
G1 X100.895 Y130.984 E1.29021
G1 X101.102 Y131.329 E1.30359
G1 X101.168 Y131.44 E1.30788
G1 X101.278 Y131.624 E1.31501
G1 X101.491 Y131.911 E1.3269
G1 X101.723 Y132.223 E1.33983
G1 X101.846 Y132.359 E1.34593
G1 X102.224 Y132.776 E1.36465
G1 X102.586 Y133.104 E1.3809
G1 X102.777 Y133.277 E1.38947
G1 X103.034 Y133.468 E1.40012
G1 X103.376 Y133.722 E1.41429
G1 X103.76 Y133.951 E1.42916
G1 X104.017 Y134.105 E1.43912
G1 X104.706 Y134.43 E1.46446
G1 X105.393 Y134.676 E1.48873
G1 X106.116 Y134.856 E1.51351
G1 X106.854 Y134.966 E1.53833
G1 X107.599 Y135.002 E1.56314
G1 X108.344 Y134.966 E1.58795
G0 F6000 X108.305 Y134.567
;TYPE:WALL-OUTER
G1 F1200 X109.004 Y134.463 E1.61145
G1 X109.689 Y134.293 E1.63493
G1 X110.355 Y134.054 E1.65846
G1 X110.993 Y133.752 E1.68194
G1 X111.6 Y133.389 E1.70546
G1 X112.167 Y132.968 E1.72895
G1 X112.691 Y132.493 E1.75247
G1 X113.166 Y131.969 E1.776
G1 X113.587 Y131.402 E1.79948
G1 X113.95 Y130.795 E1.82301
G1 X114.258 Y130.141 E1.84705
G1 X114.491 Y129.491 E1.87002
G1 X114.662 Y128.806 E1.8935
G1 X114.765 Y128.107 E1.917
G1 X114.8 Y127.401 E1.94051
G1 X114.765 Y126.695 E1.96402
G1 X114.662 Y125.996 E1.98752
G1 X114.491 Y125.311 E2.011
G1 X114.252 Y124.645 E2.03454
G1 X113.95 Y124.007 E2.05801
G1 X113.587 Y123.4 E2.08154
G1 X113.166 Y122.833 E2.10503
G1 X112.691 Y122.308 E2.12857
G1 X112.167 Y121.834 E2.15208
G1 X111.6 Y121.413 E2.17556
G1 X110.993 Y121.05 E2.19909
G1 X110.355 Y120.748 E2.22256
G1 X109.689 Y120.509 E2.2461
G1 X109.004 Y120.338 E2.26958
G1 X108.305 Y120.235 E2.29308
G1 X107.599 Y120.2 E2.31659
G1 X106.893 Y120.235 E2.3401
G1 X106.194 Y120.338 E2.3636
G1 X105.509 Y120.509 E2.38708
G1 X104.843 Y120.748 E2.41062
G1 X104.205 Y121.05 E2.4341
G1 X103.598 Y121.413 E2.45762
G1 X103.031 Y121.834 E2.48111
G1 X102.507 Y122.308 E2.50461
G1 X102.032 Y122.833 E2.52816
G1 X101.611 Y123.4 E2.55165
G1 X101.248 Y124.007 E2.57517
G1 X100.946 Y124.645 E2.59865
G1 X100.707 Y125.311 E2.62218
G1 X100.537 Y125.996 E2.64566
G1 X100.433 Y126.695 E2.66916
G1 X100.398 Y127.401 E2.69267
G1 X100.433 Y128.107 E2.71618
G1 X100.537 Y128.806 E2.73969
G1 X100.707 Y129.491 E2.76316
G1 X100.946 Y130.157 E2.78669
G1 X101.248 Y130.795 E2.81017
G1 X101.611 Y131.402 E2.8337
G1 X102.032 Y131.969 E2.85718
G1 X102.507 Y132.493 E2.88071
G1 X103.031 Y132.968 E2.90423
G1 X103.598 Y133.389 E2.92772
G1 X104.205 Y133.752 E2.95124
G1 X104.859 Y134.06 E2.97529
G1 X105.509 Y134.293 E2.99825
G1 X106.194 Y134.463 E3.02173
G1 X106.893 Y134.567 E3.04523
G1 X107.599 Y134.602 E3.06874
G1 X108.305 Y134.567 E3.09225
G0 F6000 X108.348 Y135.004
G1 F1500 E-3.40775
G0 F6000 X110.447 Y134.275
G0 X111.733 Y133.589
G0 X112.861 Y132.663
G0 X113.787 Y131.535
G0 X114.479 Y130.233
G0 X114.897 Y128.852
G0 X115.04 Y127.401
G0 X114.897 Y125.95
G0 X114.473 Y124.553
G0 X113.787 Y123.267
G0 X112.861 Y122.138
G0 X111.733 Y121.213
G0 X110.447 Y120.527
G0 X107.599 Y119.63
G0 X103.281 Y120.938
G0 X100.418 Y124.426
G0 X99.977 Y128.918
G0 X100.854 Y131.32
G0 X99.857 Y130.107
G0 X99.298 Y130.3
G0 X99.027 Y128.813
G0 X98.063 Y128.325
G0 X97.946 Y126.822
G0 X97.036 Y126.236
G0 X97.078 Y124.726
G0 X96.233 Y124.049
G0 X96.435 Y122.549
G0 X95.664 Y121.79
G0 X96.198 Y121.518
G0 X95.917 Y119.59
G0 X95.339 Y119.484
G0 X95.846 Y118.061
G0 X95.247 Y117.157
G0 X95.827 Y117.001
G0 X95.961 Y115.059
G0 X95.407 Y114.833
G0 X95.997 Y114.737
G0 X96.335 Y112.828
G0 X95.808 Y112.539
G0 X96.406 Y112.507
G0 X96.938 Y110.631
G0 X96.446 Y110.298
G0 X97.043 Y110.327
G0 X97.767 Y108.53
G0 X97.311 Y108.137
G0 X97.903 Y108.23
G0 X98.811 Y106.517
G0 X98.4 Y106.077
G0 X98.981 Y106.231
G0 X100.064 Y104.621
G0 X99.704 Y104.145
G0 X100.828 Y103.725
G0 X99.864 Y108.362
G0 X101.591 Y112.529
G0 X104.967 Y114.786
G0 X108.344 Y115.164
;TYPE:WALL-INNER
G1 F1500 E3.09225
G1 F1200 X109.082 Y115.055 E3.11706
G1 X109.805 Y114.874 E3.14185
G1 X110.508 Y114.622 E3.16669
G1 X111.182 Y114.303 E3.19149
G1 X111.822 Y113.92 E3.2163
G1 X112.421 Y113.476 E3.2411
G1 X112.975 Y112.974 E3.26597
G1 X113.476 Y112.421 E3.29078
G1 X113.92 Y111.822 E3.31558
G1 X114.303 Y111.182 E3.34039
G1 X114.622 Y110.508 E3.36519
G1 X114.874 Y109.805 E3.39003
G1 X115.055 Y109.082 E3.41482
G1 X115.164 Y108.344 E3.43963
G1 X115.2 Y107.599 E3.46444
G1 X115.164 Y106.854 E3.48925
G1 X115.055 Y106.116 E3.51406
G1 X114.874 Y105.393 E3.53885
G1 X114.622 Y104.69 E3.56369
G1 X114.303 Y104.016 E3.58849
G1 X113.92 Y103.376 E3.6133
G1 X113.476 Y102.777 E3.63809
G1 X112.975 Y102.224 E3.66291
G1 X112.421 Y101.722 E3.68778
G1 X111.822 Y101.278 E3.71258
G1 X111.182 Y100.895 E3.73739
G1 X110.508 Y100.576 E3.76219
G1 X109.805 Y100.324 E3.78703
G1 X109.082 Y100.144 E3.81181
G1 X108.344 Y100.034 E3.83662
G1 X107.599 Y99.998 E3.86143
G1 X106.854 Y100.034 E3.88624
G1 X106.116 Y100.144 E3.91106
G1 X105.393 Y100.324 E3.93584
G1 X104.674 Y100.583 E3.96126
G1 X104.016 Y100.895 E3.98548
G1 X103.671 Y101.102 E3.99886
G1 X103.56 Y101.168 E4.00315
G1 X103.376 Y101.278 E4.01028
G1 X103.089 Y101.491 E4.02217
G1 X102.777 Y101.723 E4.0351
G1 X102.641 Y101.846 E4.0412
G1 X102.224 Y102.224 E4.05992
G1 X101.896 Y102.586 E4.07617
G1 X101.723 Y102.777 E4.08474
G1 X101.532 Y103.034 E4.09539
G1 X101.278 Y103.376 E4.10956
G1 X101.049 Y103.76 E4.12443
G1 X100.895 Y104.017 E4.13439
G1 X100.57 Y104.706 E4.15973
G1 X100.324 Y105.393 E4.184
G1 X100.144 Y106.116 E4.20878
G1 X100.034 Y106.854 E4.2336
G1 X99.998 Y107.599 E4.25841
G1 X100.034 Y108.344 E4.28322
G1 X100.144 Y109.082 E4.30803
G1 X100.324 Y109.805 E4.33281
G1 X100.576 Y110.508 E4.35765
G1 X100.895 Y111.182 E4.38245
G1 X101.278 Y111.822 E4.40726
G1 X101.723 Y112.421 E4.43208
G1 X102.224 Y112.974 E4.4569
G1 X102.777 Y113.475 E4.48172
G1 X103.376 Y113.92 E4.50654
G1 X104.016 Y114.303 E4.53134
G1 X104.69 Y114.622 E4.55614
G1 X105.393 Y114.874 E4.58098
G1 X106.116 Y115.055 E4.60577
G1 X106.854 Y115.164 E4.63058
G1 X107.599 Y115.2 E4.65539
G1 X108.344 Y115.164 E4.6802
G0 F6000 X108.305 Y114.765
;TYPE:WALL-OUTER
G1 F1200 X109.004 Y114.662 E4.7037
G1 X109.689 Y114.491 E4.72718
G1 X110.355 Y114.252 E4.75072
G1 X110.993 Y113.95 E4.77419
G1 X111.6 Y113.587 E4.79772
G1 X112.167 Y113.166 E4.82121
G1 X112.692 Y112.691 E4.84475
G1 X113.166 Y112.167 E4.86826
G1 X113.587 Y111.6 E4.89174
G1 X113.95 Y110.993 E4.91527
G1 X114.252 Y110.355 E4.93874
G1 X114.491 Y109.689 E4.96228
G1 X114.662 Y109.004 E4.98576
G1 X114.765 Y108.305 E5.00926
G1 X114.8 Y107.599 E5.03277
G1 X114.765 Y106.893 E5.05628
G1 X114.662 Y106.194 E5.07978
G1 X114.491 Y105.509 E5.10326
G1 X114.252 Y104.843 E5.1268
G1 X113.95 Y104.205 E5.15028
G1 X113.587 Y103.598 E5.1738
G1 X113.166 Y103.031 E5.19729
G1 X112.692 Y102.507 E5.22079
G1 X112.167 Y102.032 E5.24434
G1 X111.6 Y101.611 E5.26783
G1 X110.993 Y101.248 E5.29135
G1 X110.355 Y100.946 E5.31483
G1 X109.689 Y100.707 E5.33836
G1 X109.004 Y100.537 E5.36183
G1 X108.305 Y100.433 E5.38534
G1 X107.599 Y100.398 E5.40885
G1 X106.893 Y100.433 E5.43236
G1 X106.194 Y100.537 E5.45587
G1 X105.509 Y100.707 E5.47934
G1 X104.828 Y100.953 E5.50342
G1 X104.205 Y101.248 E5.52635
G1 X103.598 Y101.611 E5.54987
G1 X103.031 Y102.032 E5.57336
G1 X102.507 Y102.507 E5.59688
G1 X102.032 Y103.031 E5.62041
G1 X101.611 Y103.598 E5.6439
G1 X101.248 Y104.205 E5.66742
G1 X100.94 Y104.859 E5.69146
G1 X100.707 Y105.509 E5.71443
G1 X100.537 Y106.194 E5.7379
G1 X100.433 Y106.893 E5.76141
G1 X100.398 Y107.599 E5.78492
G1 X100.433 Y108.305 E5.80843
G1 X100.537 Y109.004 E5.83193
G1 X100.707 Y109.689 E5.85541
G1 X100.946 Y110.355 E5.87894
G1 X101.248 Y110.993 E5.90242
G1 X101.611 Y111.6 E5.92594
G1 X102.032 Y112.167 E5.94943
G1 X102.507 Y112.691 E5.97296
G1 X103.031 Y113.166 E5.99648
G1 X103.598 Y113.587 E6.01997
G1 X104.205 Y113.95 E6.04349
G1 X104.843 Y114.252 E6.06697
G1 X105.509 Y114.491 E6.0905
G1 X106.194 Y114.662 E6.11399
G1 X106.893 Y114.765 E6.13748
G1 X107.599 Y114.8 E6.161
G1 X108.305 Y114.765 E6.18451
G0 F6000 X108.347 Y115.202
G1 F1500 E-0.31549
G0 F6000 X111.917 Y114.062
G0 X114.78 Y110.574
G0 X115.222 Y106.082
G0 X113.096 Y102.103
G0 X109.116 Y99.977
G0 X104.608 Y100.425
G0 X103.678 Y100.856
G0 X104.893 Y99.857
G0 X104.7 Y99.298
G0 X106.187 Y99.027
G0 X106.675 Y98.063
G0 X108.178 Y97.946
G0 X108.764 Y97.036
G0 X110.274 Y97.078
G0 X110.951 Y96.233
G0 X112.451 Y96.435
G0 X113.21 Y95.664
G0 X113.482 Y96.198
G0 X115.41 Y95.917
G0 X115.516 Y95.339
G0 X116.939 Y95.846
G0 X117.843 Y95.247
G0 X117.999 Y95.827
G0 X119.941 Y95.961
G0 X120.167 Y95.407
G0 X120.263 Y95.997
G0 X122.172 Y96.335
G0 X122.461 Y95.808
G0 X122.493 Y96.406
G0 X124.368 Y96.938
G0 X124.702 Y96.446
G0 X124.673 Y97.043
G0 X126.47 Y97.767
G0 X126.863 Y97.311
G0 X126.77 Y97.903
G0 X128.483 Y98.811
G0 X128.923 Y98.399
G0 X128.769 Y98.982
G0 X130.379 Y100.062
G0 X130.856 Y99.701
G0 X131.275 Y100.828
G0 X126.638 Y99.864
G0 X122.471 Y101.589
G0 X119.963 Y105.343
G0 X119.963 Y109.855
G0 X122.471 Y113.609
G0 X123.34 Y114.05
G0 X126.656 Y115.164
;TYPE:WALL-INNER
G1 F1500 E6.18451
G1 F1200 X127.401 Y115.2 E6.20931
G1 X128.146 Y115.164 E6.23412
G1 X128.884 Y115.055 E6.25893
G1 X129.607 Y114.874 E6.28372
G1 X130.31 Y114.622 E6.30856
G1 X130.984 Y114.303 E6.33336
G1 X131.624 Y113.92 E6.35817
G1 X132.223 Y113.475 E6.38299
G1 X132.776 Y112.974 E6.40781
G1 X133.277 Y112.421 E6.43263
G1 X133.722 Y111.822 E6.45745
G1 X134.105 Y111.182 E6.48225
G1 X134.424 Y110.508 E6.50705
G1 X134.676 Y109.805 E6.53189
G1 X134.856 Y109.082 E6.55667
G1 X134.966 Y108.343 E6.58152
G1 X135.001 Y107.582 E6.60686
G1 X134.966 Y106.854 E6.6311
G1 X134.856 Y106.116 E6.65592
G1 X134.676 Y105.393 E6.6807
G1 X134.424 Y104.69 E6.70554
G1 X134.105 Y104.016 E6.73034
G1 X133.898 Y103.671 E6.74372
G1 X133.832 Y103.56 E6.74802
G1 X133.722 Y103.376 E6.75515
G1 X133.509 Y103.089 E6.76704
G1 X133.277 Y102.777 E6.77997
G1 X133.154 Y102.641 E6.78607
G1 X132.776 Y102.224 E6.80479
G1 X132.414 Y101.896 E6.82103
G1 X132.223 Y101.723 E6.8296
G1 X131.966 Y101.532 E6.84025
G1 X131.624 Y101.278 E6.85442
G1 X131.24 Y101.049 E6.86929
G1 X130.983 Y100.895 E6.87926
G1 X130.294 Y100.57 E6.9046
G1 X129.607 Y100.324 E6.92887
G1 X128.884 Y100.144 E6.95365
G1 X128.145 Y100.034 E6.9785
G1 X127.384 Y99.999 E7.00384
G1 X126.656 Y100.034 E7.02808
G1 X125.918 Y100.144 E7.05289
G1 X125.195 Y100.324 E7.07768
G1 X124.492 Y100.576 E7.10251
G1 X123.818 Y100.895 E7.12732
G1 X123.178 Y101.278 E7.15212
G1 X122.579 Y101.722 E7.17692
G1 X122.025 Y102.224 E7.20179
G1 X121.524 Y102.777 E7.22661
G1 X121.08 Y103.376 E7.2514
G1 X120.697 Y104.017 E7.27624
G1 X120.372 Y104.706 E7.30158
G1 X120.126 Y105.393 E7.32585
G1 X119.945 Y106.116 E7.35064
G1 X119.836 Y106.854 E7.37545
G1 X119.8 Y107.599 E7.40026
G1 X119.836 Y108.344 E7.42507
G1 X119.945 Y109.082 E7.44988
G1 X120.126 Y109.805 E7.47467
G1 X120.378 Y110.508 E7.49951
G1 X120.697 Y111.182 E7.52431
G1 X121.08 Y111.822 E7.54911
G1 X121.524 Y112.421 E7.57391
G1 X122.025 Y112.974 E7.59873
G1 X122.579 Y113.476 E7.6236
G1 X123.178 Y113.92 E7.6484
G1 X123.834 Y114.311 E7.6738
G1 X124.508 Y114.628 E7.69857
G1 X125.195 Y114.874 E7.72284
G1 X125.918 Y115.055 E7.74763
G1 X126.656 Y115.164 E7.77244
G0 F6000 X126.695 Y114.765
;TYPE:WALL-OUTER
G1 F1200 X127.401 Y114.8 E7.79595
G1 X128.107 Y114.765 E7.81946
G1 X128.806 Y114.662 E7.84296
G1 X129.491 Y114.491 E7.86644
G1 X130.157 Y114.252 E7.88998
G1 X130.795 Y113.95 E7.91346
G1 X131.402 Y113.587 E7.93698
G1 X131.969 Y113.166 E7.96047
G1 X132.493 Y112.691 E7.98399
G1 X132.968 Y112.167 E8.00751
G1 X133.389 Y111.6 E8.031
G1 X133.752 Y110.993 E8.05453
G1 X134.054 Y110.355 E8.078
G1 X134.293 Y109.689 E8.10154
G1 X134.463 Y109.004 E8.12501
G1 X134.567 Y108.304 E8.14855
G1 X134.601 Y107.582 E8.17259
G1 X134.567 Y106.893 E8.19554
G1 X134.463 Y106.194 E8.21904
G1 X134.293 Y105.509 E8.24251
G1 X134.054 Y104.843 E8.26605
G1 X133.752 Y104.205 E8.28953
G1 X133.389 Y103.598 E8.31305
G1 X132.968 Y103.031 E8.33654
G1 X132.493 Y102.507 E8.36006
G1 X131.969 Y102.032 E8.38358
G1 X131.402 Y101.611 E8.40707
G1 X130.795 Y101.248 E8.4306
G1 X130.141 Y100.94 E8.45464
G1 X129.491 Y100.707 E8.47761
G1 X128.806 Y100.537 E8.50108
G1 X128.106 Y100.433 E8.52462
G1 X127.384 Y100.399 E8.54866
G1 X126.695 Y100.433 E8.5716
G1 X125.996 Y100.537 E8.59511
G1 X125.311 Y100.707 E8.61858
G1 X124.645 Y100.946 E8.64212
G1 X124.007 Y101.248 E8.66559
G1 X123.4 Y101.611 E8.68912
G1 X122.833 Y102.032 E8.71261
G1 X122.308 Y102.507 E8.73615
G1 X121.834 Y103.031 E8.75965
G1 X121.413 Y103.598 E8.78314
G1 X121.05 Y104.205 E8.80667
G1 X120.742 Y104.859 E8.83071
G1 X120.509 Y105.509 E8.85368
G1 X120.338 Y106.194 E8.87716
G1 X120.235 Y106.893 E8.90066
G1 X120.2 Y107.599 E8.92417
G1 X120.235 Y108.305 E8.94768
G1 X120.338 Y109.004 E8.97118
G1 X120.509 Y109.689 E8.99466
G1 X120.748 Y110.355 E9.0182
G1 X121.05 Y110.993 E9.04167
G1 X121.413 Y111.6 E9.0652
G1 X121.834 Y112.167 E9.08869
G1 X122.308 Y112.691 E9.11219
G1 X122.833 Y113.166 E9.13573
G1 X123.4 Y113.587 E9.15922
G1 X124.022 Y113.957 E9.18329
G1 X124.661 Y114.258 E9.20679
G1 X125.311 Y114.491 E9.22975
G1 X125.996 Y114.662 E9.25324
G1 X126.695 Y114.765 E9.27674
G0 F6000 X126.653 Y115.202
G1 F1500 E2.77674
G0 F6000 X125.134 Y115.075
G0 X123.378 Y116.33
G0 X123.033 Y118.6
G0 X122.712 Y119.66
G0 X122.19 Y120.636
G0 X121.49 Y121.49
G0 X120.644 Y122.183
G0 X119.66 Y122.712
G0 X119.36 Y122.802
G0 X117.5 Y123.302
;TYPE:WALL-INNER
G1 F1500 E9.27674
G1 F1200 X118.069 Y123.275 E9.29568
G1 X118.632 Y123.191 E9.31461
G1 X119.184 Y123.053 E9.33354
G1 X119.721 Y122.861 E9.35251
G1 X120.236 Y122.617 E9.37146
G1 X120.734 Y122.317 E9.3908
